X:2547
T:Henry Landrie
O:england
R:March
C:Trad., arr. Chris Layer
S:Hamish Moore's School of Piping
M:C
L:1/8
K:D
decA BA/B/A (3A/B/c/|dBdf d/e/f/d/A (3A/B/c/|decA BA/B/A (3A/B/c/|dBdf d2-d (3A/B/c/|decA BA/B/A (3A/B/c/|
dBdf d/e/f/d/A (3A/B/c|decA BA/B/A (3A/B/c/|dBdf d2-de/f/||g2f2 fe/d/c/d/e/f/|
dBdf fe/d/c/d/e/f/|g2f2 fe/d/c/d/e/f/|dBdf d2-de/f/:|


